X:1
T:Title
%%score { 1 | 2 | 3 | 4 }
L:1/8
Q:1/4=56
M:4/4
K:Ab
V:1 treble nm="S."
V:2 treble 
V:3 treble 
V:4 treble 
V:1
 z8 | z8 | z8 | z8 | z8 | z8 | z8 | z8 | z8 | z8 | z8 | z8 | c8 | %13
w: |||||||||||||
"^The Spirit of the Lord""^Prologue to the oratorio \"The Apostles\"" BA B4 (3AFA | d4 f4 | %15
w: ||
 a4 z2!pp! F2 | A2 A4 GF |"^Edward Elgar""^(1857-1934)" B4 F2 G2 | A2 A4- AA | A2 !tenuto!A4 AA | %20
w: * The|Spi- rit of the|Lord is up-|\-on me, * be-|cause He hath a-|
!>(! (!tenuto!d4 _G2)!>)! A2 |"^cresc." B3 B B2 B2 | e2 A2- A!>(! A2 G!>)! | %23
w: noint * ed|me to preach the|Gos- pel * to the|
!p! F4- F z!pp! F"^espress."F | A2!<(! GG!<)!!>(! c3 B!>)! | E>E EE- E2 z!pp! F | %26
w: poor: * He hath|sent me to heal the|bro- ken- heart- ed, * to|
!<(! (A2 G>)!<)!G c!>(!c cB!>)! | .E2 E2- E z"^cresc. molto"!<(! EF!<)! | (G4!<(! A) =d2!<)! c | %29
w: preach * de- liv- 'rance to the|cap- tives * and re-|cov'r * ing of|
!f! B4 =B3 B |[M:4/4] c4 z z/!ff! B/ (3B2 B/B/ |[M:4/4] (3B3/2B/B (3BE3/2e/ e4- | e3 z x4 | %33
w: sight to the|blind, to preach the ac-|cept- a- ble year of the Lord;||
 ad' d'a eb e>f | z F dc dFE!pp!A |"^poco animato\ndolce e legato" F2 FF (F E2) F | %36
w: |* * * * * * To|give un- to them * that|
 _G3!pp! G G F2 =G | A3 G- G!<(!F"^poco" FE!<)! | d3 d!>(! d c2 =A!>)! | B B2 B (BA) AB | %40
w: mourn a gar- land for|ash- es, * the oil of|joy for mourn- ing, the|gar- ment of praise * for the|
 _G G2 G B/>B/ B2!<(! B | e2!<)! d>d (d!>(! c2) B!>)! | A3 _G"^poco rall." F/>F/ F3- | %43
w: spi- rit of heav- i- ness; That|they might be call * ed|trees of right- eous- ness,|
"^tranquillo" F z z!pp! F (FE EF) | _G3 G G F2 =G | A>!>(!A A6!>)! | d4- d c2 d | B4- B A2 B | %48
w: * the plant- ing of the|Lord, that He might be|glo- ri- fied.|||
"^poco rit." z4 z!p!"^dolce" c3- |[M:4/4]"^Più mosso" c2 =d2 e2"^legato" A4 x4 | B2 A2 B2 c2 | x6 | %52
w: For|* as the earth,|the earth bring- eth||
[M:3/4] F4 G2 | A3!<(! B c>c!<)! | f4 e2 | e2 =d3 _d |!>(! d4 c!>)!c | (c2 =d2) e2 | A4"^dim." G2 | %59
w: forth her|bud, and as the|gar- den|caus- eth the|things that are|sown * in|it to|
"^dolce" (A2 G3 F) | G6 |!f! c2"^sostenuto" =d2 e2 | A4 B2 | (A2 B2)!<(! c2- | c>!<)!F F2"^," G2 | %65
w: spring * *|forth;|So the Lord|God will|cause * right|* eous- ness and|
 A3!<(! B c2!<)! |!ff! f4 e2 | e2 =d3 _d | d2"^dim." c4- | c2!p! =d2 e2 | A4 GG | %71
w: praise to spring|forth be-|fore all the|na- tions,|* As the|earth bring- eth|
"^poco rit." (A2 G3) F |[M:4/4]"^a tempo" G4 ^f^e f2 | %73
w: forth * her|bud. * * *|
"^poco a poco ritardando   al   Tempo Io" =e4 =d^c d2 | c4 BA B2- | B2 (3AFA d4 | %76
w: |||
[M:4/4] z2!ppp! F2 A2 A4 x2 |[M:4/4] GF B4 F2 | G2 x6 | A2 A2- AA A2 | A6!<(! AA!<)! | %81
w: The Spi- rit|of the Lord is|up-|\-on me, * be- cause|He hath a-|
 (_c4!>(! _F2) _G2!>)! | A3 A A2 A2 | A2 A6- |"^dim." A4 z4 | z8 | !fermata!z8 |] %87
w: noint * ed|me to preach the|Gos- pel.||||
V:2
 x8 | x8 | x8 | x8 | x8 | x8 | x8 | x8 | x8 | x8 | x8 | x8 |[K:treble] z8 | z8 | z8 | %15
w: |||||||||||||||
w: |||||||||||||||
 z4 z2!pp! F2 | A2 A4 GF | B4 F2 G2 | A2 A4- AA | A2 !tenuto!A4 AA |!>(! (!tenuto!d4 _G2)!>)! A2 | %21
w: The|Spi- rit of the|Lord is up-|\-on me, * be-|cause He hath a-|noint * ed|
w: ||||||
"^cresc." B3 B B2 B2 | e2 A2- A!>(! A2 G!>)! |!p! F4- F z!pp! F"^espress."F | %24
w: me to preach the|Gos- pel * to the|poor: * He hath|
w: |||
 (A,B,)!<(! CD!<)! E!>(!F GE!>)! | .E2 E4 z!pp! F |!<(! (CB, C)!<)!D E!>(!F GE!>)! | %27
w: sent * me to heal the bro- ken-|heart- ed, to|preach * * de- liv- 'rance to the|
w: |||
 .E2 E2- E z"^cresc. molto"!<(! EE!<)! | (E4!<(! A) A2!<)! A |!f! E4 (F =D2) E | %30
w: cap- tives * and re-|cov'r * ing of|sight to * the|
w: |||
[M:4/4] E4 z z/!ff! B/ (3B2 B/B/ |[M:4/4] (3B3/2B/B (3BE3/2E/ A4- | A3 z x4 | z8 | z4 z2 z!pp! A | %35
w: blind, to preach the ac-|cept- a- ble year of the Lord;|||To|
w: |||||
"^dolce e legato" F2 FF (F E2) F | _G3!pp! G G F2 =G | A3 G- G!<(!F"^poco" FE!<)! | %38
w: give un- to them * that|mourn a gar- land for|ash- es, * the oil of|
w: |||
 d3 d!>(! d c2 =A!>)! | B B2 B (BA) AB | _G G2 G B/>B/ B2 B | e2 d>d (d!>(! c2) B!>)! | %42
w: joy for mourn- ing, the|gar- ment of praise * for the|spi- rit of heav- i- ness; That|they might be call * ed|
w: ||||
 A3 _G"^poco rall." F/>F/ F3- | F z z!pp! F (FE EF) | _G3 G G F2 =G | A>!>(!A A6!>)! | z8 | z8 | %48
w: trees of right- eous- ness,|* the plant- ing of the|Lord, that He might be|glo- ri- fied.|||
w: ||||||
!pp! C2!<(! CC C!<)!G/!>(!F/ EC!>)! |[M:4/4] C2 z2 z2 z8 | z8 | x6 |[M:3/4] z6 | z6 | z6 | z6 | %56
w: For as the earth bring- eth forth her|bud,|||||||
w: ||||||||
 z6 | z6 | z6 | z6 | z6 |!f! c2"^sostenuto" =d2 e2 | A4 B2 | (A2 B2) c2- | c>F F2"^," G2 | %65
w: |||||So the Lord|God will|cause * right|* eous- ness and|
w: |||||||||
 A3!<(! B c2!<)! |!ff! f4 e2 | e2 =d3 _d | d2"^dim." c4- | (cB)!p! (AG) (FE) | %70
w: praise to spring|forth be-|fore all the|na- tions,|* * As * the *|
w: |||||
!<(! (=DC)!<)!!>(! ED!>)! (E2- | E3 =D) C2 |[M:4/4] B,4 z4 | z8 | z8 | z8 | %76
w: earth * bring- eth forth|* * her|||||
w: ||bud.||||
[M:4/4] z2!ppp! F2 A2 A4 x2 |[M:4/4] GF B4 F2 | G2 x6 | A2 A2- AA A2 | A6!<(! AA!<)! | %81
w: The Spi- rit|of the Lord is|up-|\-on me, * be- cause|He hath a-|
w: |||||
 (_c4!>(! _F2) _G2!>)! | A3 A A2 A2 | A2 A6- |"^dim." A4 z4 | z8 | !fermata!z8 |] %87
w: noint * ed|me to preach the|Gos- pel.||||
w: ||||||
V:3
 x8 | x8 | x8 | x8 | x8 | x8 | x8 | x8 | x8 | x8 | x8 | x8 |[K:treble-8] z8 | z8 | z8 | %15
w: |||||||||||||||
 z4 z2!pp! F2 | A2 A4 GF | B4 F2 G2 | A2 A4- AA | A2 !tenuto!A4 AA |!>(! (!tenuto!d4 _G2)!>)! A2 | %21
w: The|Spi- rit of the|Lord is up-|\-on me, * be-|cause He hath a-|noint * ed|
"^cresc." B3 B B2 B2 | e2 A2- A!>(! A2 G!>)! |!p! F4- F z!pp! F"^espress."F | %24
w: me to preach the|Gos- pel * to the|poor: * He hath|
 (FG)!<(! AB!<)! c!>(!d eG!>)! | (GE) E4 z!pp! F |!<(! (FG A)!<)!B c!>(!d eG!>)! | %27
w: sent * me to heal the bro- ken-|heart * ed, to|preach * * de- liv- 'rance to the|
 (GE) E2- E z z2 | z"^cresc. molto" B2 e!<(! e =d2!<)! d |!f! e4 (=d f2) e | %30
w: cap * tives *|and re- cov'r- ing of|sight to * the|
[M:4/4] e4 z z/!ff! B/ (3B2 B/B/ |[M:4/4] (3B3/2B/B (3BE3/2e/ e4- | e3 z x4 | z8 | z8 | z8 | z8 | %37
w: blind, to preach the ac-|cept- a- ble year of the Lord;||||||
 z8 | z8 | z8 | z8 | z8 | z8 | z2 z!pp! F (FE EF) | _G3 G G F2 =G | A>!>(!A A6!>)! | z8 | z8 | %48
w: ||||||the plant- ing of the|Lord, that He might be|glo- ri- fied.|||
!pp! c2!<(! cc c!<)!B/!>(!A/ GA!>)! |[M:4/4] A2 z2 z2 z8 | z8 | x6 |[M:3/4][K:treble-8] z6 | z6 | %54
w: For as the earth bring- eth forth her|bud,|||||
 z6 | z6 | z6 | z6 | z6 | z6 | z6 |!f! c2"^sostenuto" =d2 e2 | A4 B2 | (A2 B2) c2- | %64
w: |||||||So the Lord|God will|cause * right|
 c>F F2"^," G2 | A3!<(! B c2!<)! |!ff! f4 e2 | e2 =d3 _d | d2"^dim." c4- | c z!p! B2 (AG) | %70
w: * eous- ness and|praise to spring|forth be-|fore all the|na- tions,|* As the *|
 A3 B B2 | (AB) B2 c=D |[M:4/4][K:treble-8] E4 z4 | z8 | z8 | z8 |[M:4/4] z2!ppp! F2 A2 A4 x2 | %77
w: earth, the earth|bring * eth forth her|bud.||||The Spi- rit|
[M:4/4] GF B4 F2 | G2 x6 | A2 A2- AA A2 | A6!<(! AA!<)! | (_c4!>(! _F2) _G2!>)! | A3 A A2 A2 | %83
w: of the Lord is|up-|\-on me, * be- cause|He hath a-|noint * ed|me to preach the|
 A2 A6- |"^dim." A4 z4 | z8 | !fermata!z8 |] %87
w: Gos- pel.||||
V:4
 x8 | x8 | x8 | x8 | x8 | x8 | x8 | x8 | x8 | x8 | x8 | x8 |[K:bass] z8 | z8 | z8 | z4 z2!pp! F,2 | %16
w: |||||||||||||||The|
 A,2 A,4 G,F, | B,4 F,2 G,2 | A,2 A,4- A,A, | A,2 !tenuto!A,4 A,A, | %20
w: Spi- rit of the|Lord is up-|\-on me, * be-|cause He hath a-|
!>(! (!tenuto!D4 _G,2)!>)! A,2 |"^cresc." B,3 B, B,2 B,2 | E2 A,2- A,!>(! A,2 G,!>)! | %23
w: noint * ed|me to preach the|Gos- pel * to the|
!p! F,4- F, z!pp! F,"^espress."F, | F,2!<(! E,E,!<)!!>(! D,3 D,!>)! | D,>E, E,E,- E,2 z!pp! F, | %26
w: poor: * He hath|sent me to heal the|bro- ken- heart- ed, * to|
"^This edition""^© Andrew Sims 2006"!<(! (F,2 E,>)!<)!E, D,!>(!D, D,D,!>)! | (D,E,) E,2- E, z z2 | %28
w: preach * de- liv- 'rance to the|cap * tives *|
"^cresc. molto" B,,2 B,2!<(! A,/G,/ F,2!<)! F, |!f! G,4 G,3 G, |[M:4/4] A,4 x4 | %31
w: and re- cov- er- ing of|sight to the|blind,|
[M:4/4] z z/!ff! B,/ (3B,2 B,/B,/ (3B,3/2B,/B, (3B,E,3/2E,/ | C4- C3 z | z8 | z8 | z8 | z8 | z8 | %38
w: to preach the ac- cept- a- ble year of the|Lord; *||||||
 z8 | z8 | z8 | z8 | z8 | z2 z!pp! F, (F,E, E,F,) | _G,3 G, G, F,2 =G, | A,>!>(!A, A,6!>)! | z8 | %47
w: |||||the plant- ing of the|Lord, that He might be|glo- ri- fied.||
 z8 | z8 |[M:4/4] z8 x6 | z8 | z6 |[M:3/4] z6 | z6 | z6 | z6 | z6 | z6 | z6 | z6 | z6 | %61
w: ||||||||||||||
!f! C2"^sostenuto" =D2 E2 | A,4 B,2 | (A,2 B,2) C2- | C>F, F,2"^," G,2 | A,3!<(! B, C2!<)! | %66
w: So the Lord|God will|cause * right|* eous- ness and|praise to spring|
!ff! F4 E2 | E2 =D3 _D | D2"^dim." C4- | C z!p! B,,2 C,2 | F,4 G,G,, | F,,2 G,,G,, A,,B,, | %72
w: forth be-|fore all the|na- tions,|* As the|earth, as the|earth bring- eth forth her|
[M:4/4] [E,,E,]4 z4 | z8 | z8 | z8 |[M:4/4] z2!ppp! F,2 x8 |[M:4/4] A,2 A,4 G,F, | B,4 F,2 G,2 | %79
w: bud.||||The|Spi- rit of the|Lord is up-|
 A,2 A,2- A,A, A,2 | A,6!<(! A,A,!<)! | (_C4!>(! _F,2) _G,2!>)! | A,3 A, A,2 A,2 | A,2 A,6- | %84
w: \-on me, * be- cause|He hath a-|noint * ed|me to preach the|Gos- pel.|
"^dim." A,4 z4 | z8 | !fermata!z8 |] %87
w: |||

